app/img/solutions/ic_health.svg

<svg width="33" height="28" viewBox="0 0 33 28" fill="none" xmlns="http://www.w3.org/2000/svg">
    <path d="M30.239 2.64785C29.3607 1.80859 28.3169 1.14267 27.1677 0.688283C26.0184 0.2339 24.7862 0 23.5418 0C22.2973 0 21.0651 0.2339 19.9159 0.688283C18.7666 1.14267 17.7229 1.80859 16.8446 2.64785L16.5044 2.97165L16.1643 2.64785C14.3897 0.956964 11.9821 0.00644536 9.47126 0.00539839C6.96042 0.00435143 4.55199 0.952862 2.77579 2.64227C0.99958 4.33167 0.00110071 6.62359 9.09501e-07 9.01382C-0.00109889 11.404 0.995271 13.6968 2.76992 15.3877L15.6717 27.6697C15.7807 27.7744 15.9104 27.8574 16.0534 27.9141C16.1963 27.9708 16.3496 28 16.5044 28C16.6593 28 16.8126 27.9708 16.9555 27.9141C17.0984 27.8574 17.2282 27.7744 17.3372 27.6697L30.239 15.3877C32.0073 13.6951 33 11.405 33 9.01777C33 6.63056 32.0073 4.34042 30.239 2.64785V2.64785ZM28.5735 13.8133L16.5044 25.3026L5.60831 14.9299L4.43542 13.8133C3.77388 13.1843 3.24897 12.4374 2.89065 11.6153C2.53233 10.7931 2.34763 9.91182 2.34708 9.02171C2.34654 8.13161 2.53016 7.25012 2.88747 6.42758C3.24479 5.60503 3.76879 4.85753 4.42956 4.22777C5.09033 3.598 5.87493 3.0983 6.73856 2.7572C7.6022 2.41609 8.52795 2.24026 9.46296 2.23974C10.398 2.23922 11.3239 2.41403 12.188 2.75417C13.052 3.09432 13.8373 3.59315 14.4988 4.22219L15.6717 5.33874C15.7807 5.44339 15.9104 5.52645 16.0534 5.58314C16.1963 5.63983 16.3496 5.66901 16.5044 5.66901C16.6593 5.66901 16.8126 5.63983 16.9555 5.58314C17.0984 5.52645 17.2282 5.44339 17.3372 5.33874L18.5101 4.22219C19.1716 3.59315 19.9568 3.09432 20.8209 2.75417C21.6849 2.41403 22.6109 2.23922 23.5459 2.23974C24.4809 2.24026 25.4067 2.41609 26.2703 2.7572C27.1339 3.0983 27.9185 3.598 28.5793 4.22777C29.2401 4.85753 29.7641 5.60503 30.1214 6.42758C30.4787 7.25012 30.6623 8.13161 30.6618 9.02171C30.6613 9.91182 30.4765 10.7931 30.1182 11.6153C29.7599 12.4374 29.235 13.1843 28.5735 13.8133Z"
          fill="#80FF9F"/>
    <path d="M20.0227 11.77H17.6769V9.53684C17.6769 9.24072 17.5534 8.95672 17.3334 8.74732C17.1135 8.53793 16.8151 8.42029 16.5041 8.42029C16.193 8.42029 15.8947 8.53793 15.6747 8.74732C15.4547 8.95672 15.3312 9.24072 15.3312 9.53684V11.77H12.9854C12.6743 11.77 12.376 11.8876 12.156 12.097C11.9361 12.3064 11.8125 12.5904 11.8125 12.8865C11.8125 13.1826 11.9361 13.4666 12.156 13.676C12.376 13.8854 12.6743 14.0031 12.9854 14.0031H15.3312V16.2362C15.3312 16.5323 15.4547 16.8163 15.6747 17.0257C15.8947 17.2351 16.193 17.3527 16.5041 17.3527C16.8151 17.3527 17.1135 17.2351 17.3334 17.0257C17.5534 16.8163 17.6769 16.5323 17.6769 16.2362V14.0031H20.0227C20.3338 14.0031 20.6321 13.8854 20.8521 13.676C21.072 13.4666 21.1956 13.1826 21.1956 12.8865C21.1956 12.5904 21.072 12.3064 20.8521 12.097C20.6321 11.8876 20.3338 11.77 20.0227 11.77Z"
          fill="#80FF9F"/>
</svg>

<svg width="33" height="28" fill="none" xmlns="http://www.w3.org/2000/svg"><path d="M30.239 2.648a9.498 9.498 0 0 0-3.071-1.96A9.869 9.869 0 0 0 23.542 0a9.868 9.868 0 0 0-3.626.688 9.497 9.497 0 0 0-3.071 1.96l-.34.324-.34-.324C14.39.957 11.981.006 9.47.005c-2.51 0-4.919.948-6.695 2.637C1 4.332 0 6.624 0 9.014c-.001 2.39.995 4.683 2.77 6.374L15.672 27.67c.109.104.238.187.381.244a1.224 1.224 0 0 0 1.284-.244L30.24 15.388C32.007 13.695 33 11.405 33 9.018s-.993-4.678-2.761-6.37Zm-1.666 11.165-12.069 11.49L5.608 14.93l-1.173-1.117a6.767 6.767 0 0 1-1.544-2.198 6.497 6.497 0 0 1-.544-2.593c0-.89.183-1.772.54-2.594a6.766 6.766 0 0 1 1.543-2.2 7.153 7.153 0 0 1 2.309-1.47 7.433 7.433 0 0 1 2.724-.518c.935 0 1.86.174 2.725.514.864.34 1.65.84 2.31 1.468l1.174 1.117c.109.104.238.187.381.244a1.224 1.224 0 0 0 1.284-.244l1.173-1.117a7.154 7.154 0 0 1 2.31-1.468 7.433 7.433 0 0 1 2.726-.514c.935 0 1.86.176 2.724.517.864.341 1.649.841 2.31 1.47a6.765 6.765 0 0 1 1.541 2.2 6.497 6.497 0 0 1-.003 5.188 6.767 6.767 0 0 1-1.545 2.198Z" fill="#80FF9F"/><path d="M20.023 11.77h-2.346V9.537c0-.296-.124-.58-.344-.79a1.203 1.203 0 0 0-.829-.327c-.311 0-.61.118-.83.327a1.09 1.09 0 0 0-.343.79v2.233h-2.346c-.31 0-.609.118-.829.327a1.09 1.09 0 0 0-.344.79c0 .296.124.58.344.789.22.21.518.327.83.327h2.345v2.233c0 .296.124.58.344.79.22.21.518.327.83.327.31 0 .608-.118.828-.327.22-.21.344-.494.344-.79v-2.233h2.346c.31 0 .61-.118.83-.327.219-.21.343-.493.343-.79 0-.296-.124-.58-.344-.789a1.204 1.204 0 0 0-.83-.327Z" fill="#80FF9F"/></svg>
